X:16
T:Pobblebonk
C:Sarah Gowan 5/2007 
M:4/4
K:Em
"Em"ED E2 G2>G2|"D" AG d2"G" B4|"Em"ed B2 "Am"A2 GA| "G"BG E2 "D"D4|
"Em"ED E2 G2>G2| "D"AG d2 "C"e4|"Em"ed B2 "Am"A2 GA|"G"BG D2 "Em"E4||
"C" e2f2 "G"d2Bd|"Em"edB2"D"d2e2|"G"g2e2d2B2|"Am"AGE2"D"D2D2|
"C"EDE2 "G"GEG2|"D"AG d2"G"B2 d2|"Em"ed B2"Am"A2 GA|"G"BG D2"Em"E4|]
